icons/cashier-filled.svg

<svg width="256" height="256" viewBox="0 0 256 256" fill="none" xmlns="http://www.w3.org/2000/svg">
<rect width="256" height="256" rx="60" fill="#91D630" />
<path d="M78.8712 159.549C80.5526 164.93 83.8217 169.673 88.2472 173.152C92.6727 176.632 98.0467 178.685 103.66 179.041C109.274 179.397 114.863 178.039 119.69 175.145C124.518 172.252 128.357 167.96 130.701 162.834H180.865C183.59 162.834 186.252 162.564 188.829 162.051V177.5C188.829 183.467 186.464 189.19 182.255 193.41C178.045 197.629 172.336 200 166.382 200H44.4468C38.4935 200 32.7841 197.629 28.5745 193.41C24.3649 189.19 22 183.467 22 177.5V124.953C22 118.986 24.3649 113.263 28.5745 109.044C32.7841 104.824 38.4935 102.453 44.4468 102.453H54.5748C54.485 103.551 54.4401 104.667 54.4401 105.792V122.339C54.4385 130.257 56.7517 138.001 61.0937 144.615C65.4358 151.229 71.6163 156.418 78.8712 159.549ZM86.153 56H208.093C214.046 56 219.756 58.3705 223.965 62.5901C228.175 66.8097 230.54 72.5326 230.54 78.5V131.047C230.54 137.014 228.175 142.737 223.965 146.956C219.756 151.176 214.046 153.547 208.093 153.547H86.153C80.1997 153.547 74.4903 151.176 70.2807 146.956C66.0711 142.737 63.7062 137.014 63.7062 131.047V78.5C63.7062 72.5326 66.0711 66.8097 70.2807 62.5901C74.4903 58.3705 80.1997 56 86.153 56ZM147.123 132.644C150.804 132.691 154.458 132.005 157.872 130.625C161.287 129.245 164.394 127.2 167.014 124.607C169.633 122.015 171.713 118.926 173.133 115.522C174.552 112.117 175.283 108.463 175.283 104.773C175.283 101.083 174.552 97.4297 173.133 94.025C171.713 90.6202 169.633 87.5319 167.014 84.9392C164.394 82.3466 161.287 80.3011 157.872 78.9215C154.458 77.5419 150.804 76.8556 147.123 76.9025C139.81 76.9956 132.828 79.973 127.689 85.1897C122.551 90.4063 119.669 97.4422 119.669 104.773C119.669 112.104 122.551 119.14 127.689 124.357C132.828 129.573 139.81 132.551 147.123 132.644Z" fill="white"/>
</svg>

<svg xmlns="http://www.w3.org/2000/svg" width="256" height="256" fill="none"><rect width="256" height="256" fill="#91D630" rx="60"/><path fill="#fff" d="M78.871 159.549a27.9 27.9 0 0 0 9.376 13.603 27.755 27.755 0 0 0 31.443 1.993 27.85 27.85 0 0 0 11.011-12.311h50.164c2.725 0 5.387-.27 7.964-.783V177.5a22.53 22.53 0 0 1-6.574 15.91 22.42 22.42 0 0 1-15.873 6.59H44.447a22.42 22.42 0 0 1-15.873-6.59A22.53 22.53 0 0 1 22 177.5v-52.547c0-5.967 2.365-11.69 6.575-15.909a22.42 22.42 0 0 1 15.872-6.591h10.128a41 41 0 0 0-.135 3.339v16.547a40.6 40.6 0 0 0 6.654 22.276 40.43 40.43 0 0 0 17.777 14.934M86.153 56h121.94c5.953 0 11.663 2.37 15.872 6.59a22.53 22.53 0 0 1 6.575 15.91v52.547c0 5.967-2.365 11.69-6.575 15.909a22.42 22.42 0 0 1-15.872 6.591H86.153a22.42 22.42 0 0 1-15.872-6.591 22.53 22.53 0 0 1-6.575-15.909V78.5c0-5.967 2.365-11.69 6.575-15.91A22.42 22.42 0 0 1 86.153 56m60.97 76.644a27.7 27.7 0 0 0 10.749-2.019 27.8 27.8 0 0 0 9.142-6.018 27.9 27.9 0 0 0 8.269-19.834 27.9 27.9 0 0 0-8.269-19.834 27.8 27.8 0 0 0-9.142-6.018 27.8 27.8 0 0 0-10.749-2.019 27.78 27.78 0 0 0-19.434 8.288 27.9 27.9 0 0 0-8.02 19.583 27.9 27.9 0 0 0 8.02 19.584 27.78 27.78 0 0 0 19.434 8.287"/></svg>
